src/resources/icons-ec/src/all/presentation.svg

<?xml version="1.0" encoding="UTF-8" ?>
<svg xmlns="http://www.w3.org/2000/svg" viewBox="0 0 48 48"><defs><style
    >.cls-1{fill:none;}.cls-2{fill-rule:evenodd;}</style></defs><g
    id="transparant_bg"
  ><rect class="cls-1" y="0" width="48" height="48" /></g><g id="Layer_1"><path
      class="cls-2"
      d="M8,30H40V10H8V30ZM44,6v4h-2v22H26v2l10,12h-4l-8-10-8,10h-4l10-12v-2H6V10h-2V6H44Zm-24-2V2h8v2h-8Z"
    /></g></svg>

<?xml version="1.0" encoding="UTF-8"?>
<svg width="48px" height="48px" viewBox="0 0 48 48" version="1.1" xmlns="http://www.w3.org/2000/svg" xmlns:xlink="http://www.w3.org/1999/xlink">
    <title>EC/Icons/General/2XL_48x48px/Icon-Presentation</title>
    <defs>
        <path d="M8,30 L40,30 L40,10 L8,10 L8,30 Z M44,6 L44,10 L42,10 L42,32 L26,32 L26,34 L36,46 L32,46 L24,36 L16,46 L12,46 L22,34 L22,32 L6,32 L6,10 L4,10 L4,6 L44,6 Z M20,4 L20,2 L28,2 L28,4 L20,4 Z" id="path-1"></path>
    </defs>
    <g id="EC/Icons/General/2XL_48x48px/Icon-Presentation" stroke="none" stroke-width="1">
        <mask id="mask-2">
            <use xlink:href="#path-1"></use>
        </mask>
        <use id="Presentation" xlink:href="#path-1"></use>
    </g>
</svg>
